images/ico/images/nec_chart.svg

<svg xmlns="http://www.w3.org/2000/svg" viewBox="-21117 -18011 900 400"><defs><style>.cls-1{fill:#fff}.cls-1,.cls-2{stroke:#95989a}.cls-2,.cls-8{fill:none}.cls-3,.cls-5{fill:#95989a}.cls-3,.cls-4{font-size:11px}.cls-3,.cls-4,.cls-5{font-family:Roboto-Regular,Roboto}.cls-4{fill:#2a3052}.cls-5{font-size:12px}.cls-6{fill:#e98024}.cls-7{stroke:none}</style></defs><g id="Group_232" data-name="Group 232" transform="translate(-1184 1891)"><g id="Rectangle_339" data-name="Rectangle 339" class="cls-1"><path class="cls-7" d="M0 0h900v400H0z" transform="translate(-19933 -19902)"/><path class="cls-8" d="M.5.5h899v399H.5z" transform="translate(-19933 -19902)"/></g><g id="Group_231" data-name="Group 231" transform="translate(-19959 -19861)"><path id="Line_97" data-name="Line 97" class="cls-2" transform="translate(146.785 74.5)" d="M0 0h693.654"/><path id="Line_148" data-name="Line 148" class="cls-2" transform="translate(146.785 102.5)" d="M0 0h693.654"/><path id="Line_149" data-name="Line 149" class="cls-2" transform="translate(146.785 129.5)" d="M0 0h693.654"/><path id="Line_150" data-name="Line 150" class="cls-2" transform="translate(146.785 184.5)" d="M0 0h693.654"/><path id="Line_151" data-name="Line 151" class="cls-2" transform="translate(146.785 212.5)" d="M0 0h693.654"/><path id="Line_98" data-name="Line 98" class="cls-2" transform="translate(146.785 157.5)" d="M0 0h693.654"/><path id="Line_99" data-name="Line 99" class="cls-2" transform="translate(146.785 239.5)" d="M0 0h693.654"/><path id="Line_100" data-name="Line 100" class="cls-2" transform="translate(146.785 267.5)" d="M0 0h693.654"/><path id="Line_101" data-name="Line 101" class="cls-2" transform="translate(146.785 294.5)" d="M0 0h693.654"/><text id="_160" data-name="160" class="cls-3" transform="translate(130 77)"><tspan x="-18.584" y="0">160</tspan></text><text id="Number_of_employees_and_contractors" data-name="Number of employees and contractors" class="cls-4" transform="translate(182 47)"><tspan x="0" y="0">Number of employees and contractors</tspan></text><text id="_2007" data-name="2007" class="cls-3" transform="translate(403 313)"><tspan x="0" y="0">2007</tspan></text><text id="_2003" data-name="2003" class="cls-3" transform="translate(239 313)"><tspan x="0" y="0">2003</tspan></text><text id="_2011" data-name="2011" class="cls-3" transform="translate(567 313)"><tspan x="0" y="0">2011</tspan></text><text id="_2001" data-name="2001" class="cls-3" transform="translate(157 313)"><tspan x="0" y="0">2001</tspan></text><text id="_2009" data-name="2009" class="cls-3" transform="translate(485 313)"><tspan x="0" y="0">2009</tspan></text><text id="_2005" data-name="2005" class="cls-3" transform="translate(321 313)"><tspan x="0" y="0">2005</tspan></text><text id="_2013" data-name="2013" class="cls-3" transform="translate(649 313)"><tspan x="0" y="0">2013</tspan></text><text id="_2008" data-name="2008" class="cls-3" transform="translate(444 313)"><tspan x="0" y="0">2008</tspan></text><text id="_2004" data-name="2004" class="cls-3" transform="translate(280 313)"><tspan x="0" y="0">2004</tspan></text><text id="_2012" data-name="2012" class="cls-3" transform="translate(608 313)"><tspan x="0" y="0">2012</tspan></text><text id="_2002" data-name="2002" class="cls-3" transform="translate(198 313)"><tspan x="0" y="0">2002</tspan></text><text id="_2010" data-name="2010" class="cls-3" transform="translate(526 313)"><tspan x="0" y="0">2010</tspan></text><text id="_2006" data-name="2006" class="cls-3" transform="translate(362 313)"><tspan x="0" y="0">2006</tspan></text><text id="_2014" data-name="2014" class="cls-3" transform="translate(690 313)"><tspan x="0" y="0">2014</tspan></text><text id="_2015" data-name="2015" class="cls-3" transform="translate(731 313)"><tspan x="0" y="0">2015</tspan></text><text id="_2016" data-name="2016" class="cls-3" transform="translate(772 313)"><tspan x="0" y="0">2016</tspan></text><text id="_2017" data-name="2017" class="cls-3" transform="translate(813 313)"><tspan x="0" y="0">2017</tspan></text><text id="_120" data-name="120" class="cls-3" transform="translate(130 132)"><tspan x="-18.584" y="0">120</tspan></text><text id="_80" data-name="80" class="cls-3" transform="translate(131 187)"><tspan x="-12.391" y="0">80</tspan></text><text id="_100" data-name="100" class="cls-3" transform="translate(131 160)"><tspan x="-18.589" y="0">100</tspan></text><text id="_140" data-name="140" class="cls-3" transform="translate(131 105)"><tspan x="-18.584" y="0">140</tspan></text><text id="_40" data-name="40" class="cls-3" transform="translate(131 242)"><tspan x="-12.391" y="0">40</tspan></text><text id="_60" data-name="60" class="cls-3" transform="translate(131 215)"><tspan x="-12.391" y="0">60</tspan></text><text id="_20" data-name="20" class="cls-3" transform="translate(131 270)"><tspan x="-12.391" y="0">20</tspan></text><text id="_0" data-name="0" class="cls-5" transform="translate(138 298)"><tspan x="-6.762" y="0">0</tspan></text><path id="Path_257" data-name="Path 257" class="cls-6" d="M0 0h26v13H0z" transform="translate(147 36)"/><path id="Rectangle_340" data-name="Rectangle 340" class="cls-6" transform="translate(732 171)" d="M0 0h23v123H0z"/><path id="Rectangle_341" data-name="Rectangle 341" class="cls-6" transform="translate(773 120)" d="M0 0h23v174H0z"/><path id="Rectangle_342" data-name="Rectangle 342" class="cls-6" transform="translate(814 105)" d="M0 0h23v189H0z"/><path id="Path_538" data-name="Path 538" class="cls-6" d="M0 .672h23V109H0z" transform="translate(691 185)"/><path id="Rectangle_344" data-name="Rectangle 344" class="cls-6" transform="translate(650 228)" d="M0 0h23v66H0z"/><path id="Path_258" data-name="Path 258" class="cls-6" d="M0-4.592h23v41.625H0z" transform="translate(609 256.967)"/><path id="Path_259" data-name="Path 259" class="cls-6" d="M0-4.523h23v53.117H0z" transform="translate(486 245.406)"/><path id="Path_260" data-name="Path 260" class="cls-6" d="M0 4.7h23v41.624H0z" transform="translate(403 247.676)"/><path id="Path_261" data-name="Path 261" class="cls-6" d="M0-1.99h23v39.584H0z" transform="translate(280 256.406)"/><path id="Rectangle_345" data-name="Rectangle 345" class="cls-6" transform="translate(239 267)" d="M0 0h23v27H0z"/><path id="Path_262" data-name="Path 262" class="cls-6" d="M0-1.059h23v32.645H0z" transform="translate(321 262.414)"/><path id="Path_263" data-name="Path 263" class="cls-6" d="M0-5.732h23V15.08H0z" transform="translate(198 278.92)"/><path id="Rectangle_346" data-name="Rectangle 346" class="cls-6" transform="translate(157 276)" d="M0 0h23v18H0z"/><path id="Path_264" data-name="Path 264" class="cls-6" d="M0 3.617h23V55.73H0z" transform="translate(444 238.27)"/><path id="Rectangle_347" data-name="Rectangle 347" class="cls-6" transform="translate(362 260)" d="M0 0h23v34H0z"/><path id="Path_265" data-name="Path 265" class="cls-6" d="M0-.943h23v44.338H0z" transform="translate(568 250.605)"/><path id="Path_266" data-name="Path 266" class="cls-6" d="M0-17.07h23v52.113H0z" transform="translate(527 258.957)"/></g></g></svg>

<svg xmlns="http://www.w3.org/2000/svg" viewBox="-21117 -18011 900 400">
  <defs>
    <style>
      .cls-1 {
        fill: #fff;
      }

      .cls-1, .cls-2 {
        stroke: #95989a;
      }

      .cls-2, .cls-8 {
        fill: none;
      }

      .cls-3, .cls-5 {
        fill: #95989a;
      }

      .cls-3, .cls-4 {
        font-size: 11px;
      }

      .cls-3, .cls-4, .cls-5 {
        font-family: Roboto-Regular, Roboto;
      }

      .cls-4 {
        fill: #2a3052;
      }

      .cls-5 {
        font-size: 12px;
      }

      .cls-6 {
        fill: #e98024;
      }

      .cls-7 {
        stroke: none;
      }
    </style>
  </defs>
  <g id="Group_232" data-name="Group 232" transform="translate(-1184 1891)">
    <g id="Rectangle_339" data-name="Rectangle 339" class="cls-1" transform="translate(-19933 -19902)">
      <rect class="cls-7" width="900" height="400"/>
      <rect class="cls-8" x="0.5" y="0.5" width="899" height="399"/>
    </g>
    <g id="Group_231" data-name="Group 231" transform="translate(-19959 -19861)">
      <line id="Line_97" data-name="Line 97" class="cls-2" x2="693.654" transform="translate(146.785 74.5)"/>
      <line id="Line_148" data-name="Line 148" class="cls-2" x2="693.654" transform="translate(146.785 102.5)"/>
      <line id="Line_149" data-name="Line 149" class="cls-2" x2="693.654" transform="translate(146.785 129.5)"/>
      <line id="Line_150" data-name="Line 150" class="cls-2" x2="693.654" transform="translate(146.785 184.5)"/>
      <line id="Line_151" data-name="Line 151" class="cls-2" x2="693.654" transform="translate(146.785 212.5)"/>
      <line id="Line_98" data-name="Line 98" class="cls-2" x2="693.654" transform="translate(146.785 157.5)"/>
      <line id="Line_99" data-name="Line 99" class="cls-2" x2="693.654" transform="translate(146.785 239.5)"/>
      <line id="Line_100" data-name="Line 100" class="cls-2" x2="693.654" transform="translate(146.785 267.5)"/>
      <line id="Line_101" data-name="Line 101" class="cls-2" x2="693.654" transform="translate(146.785 294.5)"/>
      <text id="_160" data-name="160" class="cls-3" transform="translate(130 77)"><tspan x="-18.584" y="0">160</tspan></text>
      <text id="Number_of_employees_and_contractors" data-name="Number of employees and contractors" class="cls-4" transform="translate(182 47)"><tspan x="0" y="0">Number of employees and contractors</tspan></text>
      <text id="_2007" data-name="2007" class="cls-3" transform="translate(403 313)"><tspan x="0" y="0">2007</tspan></text>
      <text id="_2003" data-name="2003" class="cls-3" transform="translate(239 313)"><tspan x="0" y="0">2003</tspan></text>
      <text id="_2011" data-name="2011" class="cls-3" transform="translate(567 313)"><tspan x="0" y="0">2011</tspan></text>
      <text id="_2001" data-name="2001" class="cls-3" transform="translate(157 313)"><tspan x="0" y="0">2001</tspan></text>
      <text id="_2009" data-name="2009" class="cls-3" transform="translate(485 313)"><tspan x="0" y="0">2009</tspan></text>
      <text id="_2005" data-name="2005" class="cls-3" transform="translate(321 313)"><tspan x="0" y="0">2005</tspan></text>
      <text id="_2013" data-name="2013" class="cls-3" transform="translate(649 313)"><tspan x="0" y="0">2013</tspan></text>
      <text id="_2008" data-name="2008" class="cls-3" transform="translate(444 313)"><tspan x="0" y="0">2008</tspan></text>
      <text id="_2004" data-name="2004" class="cls-3" transform="translate(280 313)"><tspan x="0" y="0">2004</tspan></text>
      <text id="_2012" data-name="2012" class="cls-3" transform="translate(608 313)"><tspan x="0" y="0">2012</tspan></text>
      <text id="_2002" data-name="2002" class="cls-3" transform="translate(198 313)"><tspan x="0" y="0">2002</tspan></text>
      <text id="_2010" data-name="2010" class="cls-3" transform="translate(526 313)"><tspan x="0" y="0">2010</tspan></text>
      <text id="_2006" data-name="2006" class="cls-3" transform="translate(362 313)"><tspan x="0" y="0">2006</tspan></text>
      <text id="_2014" data-name="2014" class="cls-3" transform="translate(690 313)"><tspan x="0" y="0">2014</tspan></text>
      <text id="_2015" data-name="2015" class="cls-3" transform="translate(731 313)"><tspan x="0" y="0">2015</tspan></text>
      <text id="_2016" data-name="2016" class="cls-3" transform="translate(772 313)"><tspan x="0" y="0">2016</tspan></text>
      <text id="_2017" data-name="2017" class="cls-3" transform="translate(813 313)"><tspan x="0" y="0">2017</tspan></text>
      <text id="_120" data-name="120" class="cls-3" transform="translate(130 132)"><tspan x="-18.584" y="0">120</tspan></text>
      <text id="_80" data-name="80" class="cls-3" transform="translate(131 187)"><tspan x="-12.391" y="0">80</tspan></text>
      <text id="_100" data-name="100" class="cls-3" transform="translate(131 160)"><tspan x="-18.589" y="0">100</tspan></text>
      <text id="_140" data-name="140" class="cls-3" transform="translate(131 105)"><tspan x="-18.584" y="0">140</tspan></text>
      <text id="_40" data-name="40" class="cls-3" transform="translate(131 242)"><tspan x="-12.391" y="0">40</tspan></text>
      <text id="_60" data-name="60" class="cls-3" transform="translate(131 215)"><tspan x="-12.391" y="0">60</tspan></text>
      <text id="_20" data-name="20" class="cls-3" transform="translate(131 270)"><tspan x="-12.391" y="0">20</tspan></text>
      <text id="_0" data-name="0" class="cls-5" transform="translate(138 298)"><tspan x="-6.762" y="0">0</tspan></text>
      <path id="Path_257" data-name="Path 257" class="cls-6" d="M0,0H26V13H0Z" transform="translate(147 36)"/>
      <rect id="Rectangle_340" data-name="Rectangle 340" class="cls-6" width="23" height="123" transform="translate(732 171)"/>
      <rect id="Rectangle_341" data-name="Rectangle 341" class="cls-6" width="23" height="174" transform="translate(773 120)"/>
      <rect id="Rectangle_342" data-name="Rectangle 342" class="cls-6" width="23" height="189" transform="translate(814 105)"/>
      <path id="Path_538" data-name="Path 538" class="cls-6" d="M0,.672H23L23,109H0Z" transform="translate(691 185)"/>
      <rect id="Rectangle_344" data-name="Rectangle 344" class="cls-6" width="23" height="66" transform="translate(650 228)"/>
      <path id="Path_258" data-name="Path 258" class="cls-6" d="M0-4.592H23V37.033H0Z" transform="translate(609 256.967)"/>
      <path id="Path_259" data-name="Path 259" class="cls-6" d="M0-4.523H23V48.594H0Z" transform="translate(486 245.406)"/>
      <path id="Path_260" data-name="Path 260" class="cls-6" d="M0,4.7H23V46.324H0Z" transform="translate(403 247.676)"/>
      <path id="Path_261" data-name="Path 261" class="cls-6" d="M0-1.99H23V37.594H0Z" transform="translate(280 256.406)"/>
      <rect id="Rectangle_345" data-name="Rectangle 345" class="cls-6" width="23" height="27" transform="translate(239 267)"/>
      <path id="Path_262" data-name="Path 262" class="cls-6" d="M0-1.059H23V31.586H0Z" transform="translate(321 262.414)"/>
      <path id="Path_263" data-name="Path 263" class="cls-6" d="M0-5.732H23V15.08H0Z" transform="translate(198 278.92)"/>
      <rect id="Rectangle_346" data-name="Rectangle 346" class="cls-6" width="23" height="18" transform="translate(157 276)"/>
      <path id="Path_264" data-name="Path 264" class="cls-6" d="M0,3.617H23V55.73H0Z" transform="translate(444 238.27)"/>
      <rect id="Rectangle_347" data-name="Rectangle 347" class="cls-6" width="23" height="34" transform="translate(362 260)"/>
      <path id="Path_265" data-name="Path 265" class="cls-6" d="M0-.943H23V43.395H0Z" transform="translate(568 250.605)"/>
      <path id="Path_266" data-name="Path 266" class="cls-6" d="M0-17.07H23V35.043H0Z" transform="translate(527 258.957)"/>
    </g>
  </g>
</svg>
